!!!COM: Buxtehude, Dietrich
!!!CDT: ~1637///-1707/05/09/
!!!ODT: ~1694///
!!!OTL: Sonata in G Major, Op. 1, No. 2
!!!OPS: Op. 1
!!!ONM: No. 2
!!!SCA: BuxWV 253
!!!OMD: 5. Largo
!!!URL: http://www.lysator.liu.se/~tuben/scores
!!!ONB: Johan Tufvessons, ed.
!!!SMA: facsmile of the original edition at Uppsala University
**kern	**kern	**kern
*staff3	*staff2	*staff1
*Icemba	*Iviola	*Ivioln
*clefF4	*clefC3	*clefG2
*k[f#]	*k[f#]	*k[f#]
*met(C)	*met(C)	*met(C)
*M4/4	*M4/4	*M4/4
*MM40	*MM40	*MM40
=105-	=105-	=105-
4.B\	1r	1r
8c\	.	.
[2A\	.	.
=106	=106	=106
4A\]	4.b\	1r
[4G\	.	.
.	8cc\	.
4G\]	[2a\	.
[4F#\	.	.
=107	=107	=107
4F#\]	4a\]	4.b\
4E\	2g\	.
.	.	8cc\
4E\	.	[2a/
4D\	[4f#\	.
=108	=108	=108
2E\	4f#\]	4a/]
.	2e\	2g/
2BB/	.	.
.	4d#\	[4f#/
=109	=109	=109
1r	4.g\	4f#/]
.	.	2e/
.	8a\	.
.	2f#\	.
.	.	4d#/
=110	=110	=110
2E\	2g\	4e/
.	.	2cc\
2F#\	[2a\	.
.	.	8b/L
.	.	8a/J
=111	=111	=111
2G\	4a\]	2.b\
.	8g\L	.
.	8f#\J	.
2E\	2g\	.
.	.	4cc#\
=112	=112	=112
1D;	1f#;	1dd;
==	==	==
*-	*-	*-
!!!ENC: Craig Stuart Sapp
!!!END: 2004/12/15/
